priv/static/svgs/icons_new/media-auto-play.svg

<svg width="32" height="32" viewBox="0 0 32 32" fill="none" xmlns="http://www.w3.org/2000/svg">
<path d="M21.7749 4.16356C21.7044 3.89657 21.4308 3.73726 21.1638 3.80774C20.8968 3.87822 20.7375 4.15179 20.808 4.41879L21.7749 4.16356ZM22.6702 9.51425L22.7693 10.0043C22.9043 9.97702 23.022 9.89529 23.0947 9.77838C23.1675 9.66148 23.1888 9.51976 23.1536 9.38663L22.6702 9.51425ZM17.6056 10.0285C17.3349 10.0833 17.1599 10.3471 17.2146 10.6177C17.2694 10.8884 17.5332 11.0634 17.8039 11.0087L17.6056 10.0285ZM26.3205 16.5656C26.3066 16.2899 26.0717 16.0776 25.7959 16.0916C25.5201 16.1055 25.3078 16.3404 25.3218 16.6162L26.3205 16.5656ZM20.808 4.41879L22.1867 9.64186L23.1536 9.38663L21.7749 4.16356L20.808 4.41879ZM22.5711 9.02417L17.6056 10.0285L17.8039 11.0087L22.7693 10.0043L22.5711 9.02417ZM22.3845 24.277C18.4273 28.2342 11.9761 28.2098 7.97533 24.2091L7.26822 24.9162C11.6535 29.3015 18.7379 29.3379 23.0916 24.9841L22.3845 24.277ZM7.97533 24.2091C3.97459 20.2084 3.95018 13.7572 7.90744 9.79992L7.20033 9.09281C2.84658 13.4466 2.88296 20.531 7.26822 24.9162L7.97533 24.2091ZM7.90744 9.79992C11.8647 5.84266 18.3159 5.86706 22.3166 9.8678L23.0237 9.16069C18.6385 4.77543 11.5541 4.73906 7.20033 9.09281L7.90744 9.79992ZM25.3218 16.6162C25.4617 19.3806 24.4831 22.1784 22.3845 24.277L23.0916 24.9841C25.3995 22.6762 26.474 19.5989 26.3205 16.5656L25.3218 16.6162Z" fill="black"/>
<path d="M11.9028 20.8915V13.5379C11.9028 12.6917 12.8519 12.1924 13.5493 12.6719L19.0217 16.4342C19.6371 16.8572 19.6273 17.7692 19.0029 18.1789L13.5305 21.7702C12.8316 22.2289 11.9028 21.7275 11.9028 20.8915Z" stroke="black"/>
</svg>

<svg width="32" height="32" viewBox="0 0 32 32" fill="none" xmlns="http://www.w3.org/2000/svg">
  <symbol id="item" viewBox="0 0 32 32" stroke-width="1" fill="none">
    <path d="M21.775 4.164a.5.5 0 0 0-.967.255l.967-.255Zm.895 5.35.1.49a.5.5 0 0 0 .384-.617l-.484.127Zm-5.064.514a.5.5 0 0 0 .198.98l-.198-.98Zm8.714 6.538a.5.5 0 1 0-.998.05l.998-.05ZM20.808 4.419l1.379 5.223.967-.255-1.38-5.223-.966.255Zm1.763 4.605-4.965 1.005.198.98 4.965-1.005-.198-.98Zm-.187 15.253c-3.957 3.957-10.408 3.933-14.409-.068l-.707.707c4.385 4.386 11.47 4.422 15.824.068l-.707-.707Zm-14.409-.068c-4-4-4.025-10.452-.068-14.41L7.2 9.094c-4.353 4.354-4.317 11.438.068 15.823l.707-.707ZM7.907 9.8c3.958-3.956 10.409-3.932 14.41.069l.707-.707C18.638 4.775 11.554 4.739 7.2 9.093l.707.707Zm17.415 6.817a10.07 10.07 0 0 1-2.938 7.661l.708.707a11.07 11.07 0 0 0 3.229-8.418l-1 .05Z" fill="currentColor"/><path d="M11.903 20.892v-7.354c0-.846.949-1.346 1.646-.866l5.473 3.762a1.05 1.05 0 0 1-.02 1.745l-5.471 3.591a1.051 1.051 0 0 1-1.628-.878Z" stroke="currentColor"/>
  </symbol>
</svg>
